**kern	**kern	**kern	**kern
*staff3	*staff4	*staff1	*staff2
*clefF4	*clefF4	*clefG2	*clefG2
*k[f#c#]	*k[f#c#]	*k[f#c#]	*k[f#c#]
*M2/4	*M2/4	*M2/4	*M2/4
*D:	*D:	*D:	*D:
=-	=-	=-	=-
2r	4D 4d	24f#LL	2r
.	.	24ff#	.
.	.	24f#J	.
.	.	24gL	.
.	.	24gg	.
.	.	24gJJ	.
.	8r	24f#LL	.
.	.	24ff#	.
.	.	24f#J	.
.	8C# 8c#	24aL	.
.	.	24aa	.
.	.	24aJJ	.
=81	=81	=81	=81
2r	4BB 4B	24dLL	2r
.	.	24dd	.
.	.	24dJ	.
.	.	24eL	.
.	.	24ee	.
.	.	24eJJ	.
.	8r	24dLL	.
.	.	24dd	.
.	.	24dJ	.
.	8AA 8A	24f#L	.
.	.	24ff#	.
.	.	24f#JJ	.
=82	=82	=82	=82
2r	8GGL 8G	24BLL	2r
.	.	24b	.
.	.	24BJ	.
.	8EEJ 8E	24c#L	.
.	.	24cc#	.
.	.	24c#JJ	.
.	8AAL 8A	24dLL	.
.	.	24dd	.
.	.	24dJ	.
.	8GGJ 8G	24eL	.
.	.	24ee	.
.	.	24eJJ	.
=83	=83	=83	=83
2r	4FF# 4F#	24dLL	2r
.	.	24dd	.
.	.	24dJ	.
.	.	24c#L	.
.	.	24cc#	.
.	.	24c#JJ	.
.	8r	24BLL	.
.	.	24b	.
.	.	24BJ	.
.	8GG 8G	24A#L	.
.	.	24a#	.
.	.	24A#JJ	.
=84	=84	=84	=84
2r	8FF#L 8F#	24ALL	2r
.	.	24a	.
.	.	24AJ	.
.	8DDJ 8D	24BL	.
.	.	24b	.
.	.	24BJJ	.
*	*	*clefF4	*
.	8DD#L 8D#	24F#LL	.
.	.	24f#	.
.	.	24F#J	.
.	8BBBJ 8BB	24AL	.
.	.	24a	.
.	.	24AJJ	.
=85	=85	=85	=85
2r	8EEL 8E	24GLL	2r
.	.	24g	.
.	.	24GJ	.
.	8BBB#J 8BB#	24AL	.
.	.	24a	.
.	.	24AJJ	.
.	8CC#L 8C#	24ELL	.
.	.	24e	.
.	.	24EJ	.
.	8AAAJ 8AA	24GL	.
.	.	24g	.
.	.	24GJJ	.
=86	=86	=86	=86
2r	8DDL 8D	24F#LL	2r
.	.	24f#	.
.	.	24F#J	.
.	8AAA#J 8AA#	24EL	.
.	.	24e	.
.	.	24EJJ	.
.	8BBBL 8BB	24DLL	.
.	.	24d	.
.	.	24DJ	.
.	8GGG#J 8GG#	24EL	.
.	.	24e	.
.	.	24EJJ	.
=87	=87	=87	=87
2r	4AAA 4AA	24C#LL	2r
.	.	24c#	.
.	.	24C#J	.
.	.	24BBL	.
.	.	24B	.
.	.	24BBJJ	.
.	8r	8AA	.
.	8AAA	8r	.
=88:|!|:	=88:|!	=88:|!	=88:|!
*-	*-	*-	*-
